svgs/light/mobile-screen.svg

<svg xmlns="http://www.w3.org/2000/svg" viewBox="0 0 384 512"><!--! Font Awesome Pro 6.3.0 by @fontawesome - https://fontawesome.com License - https://fontawesome.com/license (Commercial License) Copyright 2023 Fonticons, Inc. --><path d="M288 0H96C60.65 0 32 28.65 32 64v384c0 35.35 28.65 64 64 64h192c35.35 0 64-28.65 64-64V64C352 28.65 323.3 0 288 0zM320 448c0 17.64-14.36 32-32 32H96c-17.64 0-32-14.36-32-32v-96h256V448zM320 320H64V64c0-17.64 14.36-32 32-32h192c17.64 0 32 14.36 32 32V320zM160 432h64c8.836 0 16-7.164 16-16c0-8.838-7.164-16-16-16H160c-8.836 0-16 7.162-16 16C144 424.8 151.2 432 160 432z"/></svg>

<svg xmlns="http://www.w3.org/2000/svg" viewBox="0 0 384 512"><!--! Font Awesome Pro 6.4.0 by @fontawesome - https://fontawesome.com License - https://fontawesome.com/license (Commercial License) Copyright 2023 Fonticons, Inc. --><path d="M288 32c17.7 0 32 14.3 32 32V320H64V64c0-17.7 14.3-32 32-32H288zm32 320v96c0 17.7-14.3 32-32 32H96c-17.7 0-32-14.3-32-32V352H320zM96 0C60.7 0 32 28.7 32 64V448c0 35.3 28.7 64 64 64H288c35.3 0 64-28.7 64-64V64c0-35.3-28.7-64-64-64H96zm48 416c0 8.8 7.2 16 16 16h64c8.8 0 16-7.2 16-16s-7.2-16-16-16H160c-8.8 0-16 7.2-16 16z"/></svg>
